X:90
T:Kenny's Gone
C:John Reischman
N:From the CD "Bumpy Road" Transcribed by Mike Stangeland
L:1/8
Q:1/4=130
M:4/4
K:A
z4 z{=c}^c zc |: "F#m"f3c fg ag | "Bm6"zf ze "E7"z2 d2 | "Amaj7"d2 cc zA Bc | 
"Dmaj7"z3G AB cd | "Gmaj7"z3c zB AG | "C#7"z2 {c}d2 c2 =F2 | "F#m"G2 F2 "C#7"FD =F^F | 
"F#m"z4 z=c ^cc | f3c fg ag | "Bm6"zf z3/2g/4f/4 "E7"e2 d2 | "Amaj7"d2 cc zA Bc | 
"Dmaj7"z3G AB cd | "Gmaj7"z2 Bc de z2 | "C#7"cd e=f z2 c{=g}^g | "F#m"z2 f2 c4 | 
"Em7"zf ze A"A9"e zd | "Dmaj7"F3G AB z2 | "C#7"c2 d2 =f2 e2 | "Amaj7"c2 d2 {^d}e4 | 
"Dmaj7"zb ae z3c | "G#7"=c3^c ^d=f z^f | "G#sus7"z2 g2 {a}"G#7"b2 a2 | "C#7"g2 {=c}^cc z4 | 
"Gmaj7"z2 (3ded c2 {B}cc | "F#m"f3c fg ag | "Bm6"zf ze "E7"z2 d2 | d2 cc zA Bc | 
"Dmaj7"z3G AB cd | "Gmaj7"z3c zB AG | "C#7"z2 {c}d2 c2 =F2 | "F#m"G2 F2 "C#7"FD =F^F :| 
|: z"F#m"f c=c BF (3B^cB | F4 zF (3AFA | {B}"Bm6"cB2{=c}d "E7"z^c BA | "Amaj7"Bc ec fc fg | 
"Dmaj7"a2 gf z3{e}f | "Gmaj7"af bf af ba | {b}"C#7"c'b a2 ga bg | "F#m"af ge "C#7"fc ec | 
"F#m"fe c=c BA F=F | Fc ee fa ba | {b}"Bm6"c'3d' "E7"zc' ba | (3"Amaj7"c'2b2 g2 (3b2a2 f2 | 
(3"Dmaj7"a2e2 g2 (3f2d2 f2 | "Gmaj7"e2 c4 zc | "C#7"dc BA FD EF | "F#m"AF B2 {B}c2 A^D | 
(3E=GB d2 c"A9"d ed | "Dmaj7"B2 cA z3[ae] | "C#7"f[a2e2][fc] dc BA | {=c}"Amaj7"^ce fc eg aa | 
{a}"Dmaj7"b2 a4 za | "G#7"ga ba gf ag | "G#sus7"fe fe "G#7"c=c BA | {B}"C#7"c2 BA {B}c2 BA | 
{B}"Gmaj7"=c2 ^A=A {B}c2 _BA | "F#m"F2 AF BA2c | "Bm6"fc fa "E7"ga ab | ag a2 gf g2 | 
"Dmaj7"fe f{e}f zc ec | "Gmaj7"ag fe c=c BA | {B}"C#7"c2 BA {B}c2 BA | "F#m"zF (3AFA {=c}"C#7"^cB A2 | 
"F#m"FD EF2{=c}^c zc :| F8 | 


